logos/sherlock-icon.svg

<?xml version="1.0" encoding="UTF-8"?>
<svg width="256px" height="299px" viewBox="0 0 256 299" version="1.1" xmlns="http://www.w3.org/2000/svg" xmlns:xlink="http://www.w3.org/1999/xlink" preserveAspectRatio="xMidYMid">
    <g>
        <path d="M185.191304,245.965913 C183.91687,245.965913 182.722087,245.249043 182.164522,244.054261 C181.368,242.381565 182.005217,240.310609 183.677913,239.514087 C203.431652,229.637217 219.919652,214.582957 231.389565,196.024 C243.098435,177.066783 249.231652,154.843826 249.231652,131.744696 C249.231652,89.5290435 227.805217,50.9773913 191.882087,28.6747826 C190.289043,27.7189565 189.81113,25.5683478 190.766957,23.9753043 C191.722783,22.3822609 193.873391,21.9043478 195.466435,22.8601739 C213.62713,34.1707826 228.761043,49.941913 239.354783,68.5008696 C250.26713,87.6970435 256.002087,109.521739 256.002087,131.665043 C256.002087,156.038609 249.470609,179.456348 237.124522,199.528696 C225.017391,219.202783 207.573565,235.133217 186.704696,245.488 C186.226783,245.886261 185.74887,245.965913 185.191304,245.965913 Z" fill="#FFC700"></path>
        <path d="M71.8462609,244.691478 C71.3683478,244.691478 70.8107826,244.611826 70.3328696,244.293217 C25.648,221.751652 0,180.730783 0,131.744696 C0,79.8114783 30.9846957,33.3742609 78.9353043,13.4612174 C80.6876522,12.7443478 82.6789565,13.5408696 83.3958261,15.2932174 C84.1126957,17.0455652 83.3161739,19.0368696 81.5638261,19.7537391 C36.162087,38.6313043 6.85008696,82.5993043 6.85008696,131.744696 C6.85008696,178.022609 31.144,216.89287 73.4393043,238.319304 C75.112,239.195478 75.7492174,241.186783 74.9526957,242.859478 C74.2358261,244.054261 73.0410435,244.691478 71.8462609,244.691478 Z" fill="#FFC700"></path>
        <path d="M128.399304,213.388174 C130.625696,216.024691 131.688492,219.824803 132.031492,223.171814 C136.911083,222.405676 142.266043,220.685715 147.197217,217.211478 C148.630957,216.176 150.622261,216.574261 151.657739,218.008 C152.693217,219.441739 152.294957,221.433043 150.861217,222.468522 C142.019826,228.601739 132.381913,230.11513 125.053913,230.11513 C118.681739,230.11513 114.221217,229 113.822957,228.840696 C112.150261,228.362783 111.114783,226.690087 111.592696,224.937739 C112.070609,223.265043 113.743304,222.229565 115.495652,222.707478 C115.612021,222.746268 119.808667,223.786237 125.70297,223.702345 C125.469558,221.363486 124.758384,218.900271 123.540522,217.450435 C121.867826,215.45913 118.602087,214.344 115.336348,214.662609 C113.504348,214.821913 110.158957,215.618435 108.326957,218.884174 C107.291478,220.795826 107.37113,225.574957 107.37113,227.88487 L107.37104,233.258399 C107.371027,233.444339 107.371012,233.628961 107.370995,233.812267 L107.370046,237.959901 C107.369978,238.122271 107.369906,238.283339 107.369829,238.443109 L107.369012,239.846 C107.364033,246.989538 107.347354,251.275265 107.291478,252.895652 C107.211826,255.285217 107.211826,257.834087 107.291478,260.542261 C107.37113,272.012174 107.530435,284.995478 100.04313,292.482783 C96.3791304,296.146783 91.2017391,298.058435 84.6702609,298.058435 C75.4306087,298.058435 68.8991304,295.111304 65.3147826,289.376348 C62.5269565,284.915826 62.1286957,279.977391 62.1286957,275.676174 L62.1286957,254.807304 C62.1286957,253.054957 63.5624348,251.621217 65.3147826,251.621217 L91.3610435,251.621217 C93.1133913,251.621217 94.5471304,253.054957 94.5471304,254.807304 L94.5471304,271.693565 C94.5471304,273.445913 93.1133913,274.879652 91.3610435,274.879652 C89.6086957,274.879652 88.1749565,273.445913 88.1749565,271.693565 L88.1749565,257.993391 L68.5008696,257.993391 L68.5008696,275.676174 C68.5008696,284.039652 70.4921739,291.765913 84.6702609,291.765913 C89.5290435,291.765913 93.0337391,290.57113 95.5826087,288.022261 C101.158261,282.446609 101.078609,270.817391 100.919304,260.621913 C100.919304,257.834087 100.839652,255.205565 100.919304,252.656696 C100.972406,251.222957 100.990106,247.240348 100.996006,240.756071 L100.99674,239.856349 C100.996851,239.703813 100.996956,239.549986 100.997056,239.394867 L100.997822,237.963976 C100.997893,237.80112 100.997959,237.636975 100.998021,237.471541 L100.998957,227.964522 L100.998957,227.964522 C100.919304,223.504 100.998957,218.884174 102.751304,215.777739 C105.14087,211.556174 109.442087,208.848 114.69913,208.370087 C120.115478,207.892174 125.372522,209.803826 128.399304,213.388174 Z M206.219478,157.870609 C206.697391,158.587478 217.450435,175.872 221.034783,200.723478 C221.273739,202.157217 220.477217,203.511304 219.202783,204.06887 C206.617739,209.56487 192.121043,235.133217 187.660522,244.452522 C187.182609,245.647304 186.067478,246.284522 184.872696,246.284522 C184.394783,246.284522 183.91687,246.20487 183.518609,245.965913 C181.925565,245.169391 181.288348,243.337391 182.005217,241.744348 C182.642435,240.310609 198.094957,208.768348 214.503304,199.449043 C212.113739,184.793043 207.095652,173.084174 203.829913,166.632348 L167.588174,244.213565 C167.030609,245.328696 165.915478,246.045565 164.720696,246.045565 L115.017739,246.045565 C113.265391,246.045565 111.831652,244.611826 111.831652,242.859478 C111.831652,241.10713 113.265391,239.673391 115.017739,239.673391 L162.649739,239.673391 L200.643826,158.189217 C201.121739,157.153739 202.157217,156.43687 203.352,156.357217 C204.546783,156.277565 205.582261,156.83513 206.219478,157.870609 Z M56.7123478,157.392696 C57.7478261,157.552 58.624,158.26887 59.0222609,159.224696 L96.618087,241.505391 C97.3349565,243.098435 96.618087,245.010087 95.0250435,245.726957 C94.6267826,245.965913 94.1488696,246.045565 93.7506087,246.045565 C92.5558261,246.045565 91.3610435,245.328696 90.8831304,244.213565 L55.3582609,166.313739 C50.5791304,172.367304 41.8173913,185.270957 41.1801739,199.926957 C57.5885217,210.68 74.8730435,239.992 75.589913,241.266435 C76.466087,242.779826 75.9881739,244.691478 74.4747826,245.647304 C72.9613913,246.523478 71.0497391,246.045565 70.093913,244.532174 C69.9346087,244.213565 51.773913,213.388174 36.4010435,204.46713 C35.4452174,203.909565 34.808,202.874087 34.808,201.679304 C34.808,178.022609 53.2076522,159.065391 53.9245217,158.26887 C54.6413913,157.552 55.6768696,157.153739 56.7123478,157.392696 Z M141.78087,2.66453526e-15 C143.584063,2.66453526e-15 145.096022,1.11639691 145.672598,2.70504181 C150.024022,3.22744667 157.565378,4.53992312 163.964362,7.64363844 C165.027703,5.58789292 167.435085,4.22912345 170.137043,5.41634783 C184.155826,11.6292174 199.369391,23.816 209.644522,41.9766957 L209.664212,42.0086948 C209.722855,42.1043739 209.910547,42.4131827 210.201217,42.915785 L210.525247,43.4822689 C213.931083,49.4989195 225.946136,72.622073 223.822609,95.9808696 C223.558118,99.1547624 221.000385,100.620922 218.593195,100.338845 C219.590701,101.976587 220.208036,103.615401 220.477217,105.220522 C220.716174,106.335652 221.910957,112.389217 217.848696,117.646261 C214.407189,122.186121 208.27313,124.639254 199.694045,125.00566 C203.513444,135.093918 202.874087,144.993533 202.874087,145.44487 C202.794435,147.037913 201.440348,148.312348 199.767652,148.312348 L199.528696,148.312348 L199.528696,148.312348 C197.776348,148.153043 196.422261,146.639652 196.581565,144.887304 C196.581565,144.852133 196.612625,144.343294 196.617315,143.473078 L196.617018,142.979231 C196.595537,139.645522 196.16365,132.47191 193.156522,125.69113 C193.062847,125.482965 192.993654,125.269359 192.947876,125.053868 L186.784348,125.053913 L186.784348,125.053913 C181.368,125.053913 174.836522,125.133565 167.82713,125.133565 C161.277597,125.133565 154.300731,125.106857 147.329573,125.037975 C145.860676,129.672236 145.126261,135.337685 145.126261,142.338435 L145.126261,179.536 L145.126261,179.536 C145.205913,185.589565 145.126261,192.280348 143.373913,195.944348 C140.904696,201.042087 135.568,204.148522 129.116174,204.228174 C129.036522,204.387478 128.95687,204.387478 128.797565,204.387478 C122.266087,204.387478 116.13287,201.201391 113.584,196.422261 C111.433391,192.439652 111.513043,187.899478 111.592696,182.164522 C111.592696,180.412174 111.672348,178.659826 111.592696,176.668522 C111.592696,174.916174 112.946783,173.482435 114.69913,173.402783 C116.451478,173.32313 117.885217,174.75687 117.96487,176.509217 L117.96487,182.164522 L117.96487,182.164522 C117.885217,187.023304 117.805565,190.846609 119.159652,193.395478 C120.673043,196.183304 124.655652,198.094957 128.95687,198.015304 C130.868522,198.015304 135.568,197.457739 137.638957,193.236174 C138.913391,190.607652 138.833739,182.722087 138.754087,179.695304 L138.754087,142.418087 C138.754087,135.587668 139.431773,129.851974 140.744973,124.957968 C137.895963,124.919745 135.072002,124.871869 132.302261,124.814957 C126.732509,124.93296 120.925002,125.009006 115.138733,125.055528 L112.970383,125.071614 C108.637698,125.101114 104.33517,125.114881 100.17206,125.118159 L96.0594696,125.118135 C89.2960964,125.112915 83.0211659,125.083414 77.7405217,125.053913 L67.1467826,125.053913 L67.1467826,125.053913 C58.7833043,125.053913 52.4111304,122.823652 48.4285217,118.36313 C43.7290435,113.185739 43.8883478,106.813565 43.968,105.698435 C43.968,103.52126 44.5867226,101.400333 45.8074566,99.3523641 C43.1128936,101.45486 38.5130408,100.296664 38.1533913,95.9808696 C36.0298643,72.622073 48.0449169,49.4989195 51.4507527,43.4822689 L51.7747828,42.915785 C52.0654526,42.4131827 52.2531448,42.1043739 52.3117876,42.0086948 L52.3314783,41.9766957 C62.6066087,23.816 77.8201739,11.6292174 91.8389565,5.41634783 C94.3689981,4.30466291 96.6407554,5.42529141 97.7929818,7.2599529 C105.962573,3.51106615 115.717958,2.57700171 118.344233,2.3628451 C118.994254,0.972686648 120.423646,2.66453526e-15 122.106783,2.66453526e-15 L122.106783,2.66453526e-15 Z M172.526609,139.072696 C176.001872,139.072696 178.81913,141.854292 178.81913,145.285565 C178.81913,148.716838 176.001872,151.498435 172.526609,151.498435 C169.051345,151.498435 166.234087,148.716838 166.234087,145.285565 C166.234087,141.854292 169.051345,139.072696 172.526609,139.072696 Z M107.37113,141.143652 C109.123478,141.143652 110.557217,142.577391 110.557217,144.329739 C110.557217,146.082087 109.123478,147.515826 107.37113,147.515826 L78.0591304,147.515826 C76.3067826,147.515826 74.8730435,146.082087 74.8730435,144.329739 C74.8730435,142.577391 76.3067826,141.143652 78.0591304,141.143652 L107.37113,141.143652 Z M53.0483478,99.3262609 C50.7384348,101.556522 49.6233043,103.70713 49.6233043,105.778087 L49.6233043,106.017043 C49.6233043,106.017043 49.6118201,106.157151 49.6095233,106.407723 L49.60958,106.590811 C49.6226805,107.98243 49.9359016,111.636279 52.650087,114.539826 C55.5972174,117.725913 60.456,119.318957 67.1467826,119.318957 L77.7405217,119.318957 L77.7405217,119.318957 C84.0772947,119.389758 91.84584,119.444827 100.17206,119.449197 L102.264727,119.449213 C111.72946,119.444351 121.807809,119.371637 131.255209,119.181289 L132.302261,119.159652 C142.897448,119.384126 154.352984,119.456775 164.871799,119.463171 L167.897701,119.463244 C174.889132,119.459434 181.370896,119.429021 186.784348,119.398609 L197.378087,119.398609 L197.378087,119.398609 C205.263652,119.398609 210.759652,117.646261 213.388174,114.221217 C216.016696,110.796174 214.981217,106.574609 214.981217,106.574609 L214.901565,106.256 C214.025391,100.919304 206.538087,95.264 194.829217,91.122087 C179.695304,85.8650435 158.109565,83.0772174 132.222609,83.0772174 L132.142957,83.0772174 C102.193739,82.0417391 66.1909565,86.6615652 53.0483478,99.3262609 Z M146.585355,15.1748629 L146.790597,15.3584428 C149.023122,17.3710825 151.589466,20.1406211 154.206609,23.8956522 C165.458464,39.9591567 169.349143,62.4894898 170.545982,79.7863374 C189.046634,82.364639 201.751268,86.8133113 209.735876,91.9071811 C206.614823,77.0505732 201.65866,59.5886856 191.882087,44.9238261 C180.906704,28.460752 165.73954,18.4898279 146.585355,15.1748629 Z M113.02166,15.4990415 L112.930099,15.5151802 C99.4523585,17.9477541 88.2075851,23.1845406 79.4132174,31.144 C72.4038261,37.5161739 66.6688696,45.8796522 62.4473043,55.9158261 C58.2974085,65.8901371 55.5449951,77.7943047 54.190064,91.3241972 C62.3601469,86.0565307 74.841379,82.063464 89.9616837,79.7048824 C91.2092916,62.4921103 95.1353551,40.2678103 106.176348,23.816 C108.574256,20.2712668 110.929519,17.5538343 113.02166,15.4990415 Z M131.585391,13.9391304 C126.419923,13.9391304 121.496316,14.2601463 116.822836,14.8990782 C109.298588,21.241444 94.9836838,38.5144153 91.9777064,79.3996672 C104.095165,77.6548683 117.810516,76.9358168 132.302261,77.421913 C146.152296,77.421913 158.120988,78.1776663 168.379022,79.495007 C165.347167,36.0553581 149.620254,19.7805652 142.42781,14.5664509 C138.938566,14.1489044 135.32363,13.9391304 131.585391,13.9391304 Z M145.857881,4.85384946 L145.844445,4.93280946 C145.63504,5.97564492 145.019249,6.8790975 144.159931,7.4707279 C151.358876,8.39393231 158.080947,10.1402221 164.311919,12.7038526 C163.613591,11.7933745 163.337921,10.7430435 163.392347,9.71627212 C157.43502,6.76112853 150.218865,5.42572863 145.857881,4.85384946 Z M117.97833,4.47193727 L117.837288,4.48453719 C114.553766,4.79157435 105.775454,5.89466912 98.5340841,9.24343961 C98.6669791,10.1122694 98.5676706,11.0162803 98.1797934,11.854306 C104.672868,9.56958812 111.769713,8.04152984 119.465922,7.27315298 C118.627039,6.59329142 118.070251,5.59447815 117.97833,4.47193727 Z" fill="#150007"></path>
    </g>
</svg>

<svg preserveAspectRatio="xMidYMid" viewBox="0 0 256 299" xmlns="http://www.w3.org/2000/svg">
  <path fill="#FFC700" d="M185.191 245.966a3.328 3.328 0 0 1-3.026-1.912c-.797-1.672-.16-3.743 1.513-4.54 19.754-9.877 36.242-24.931 47.712-43.49 11.708-18.957 17.842-41.18 17.842-64.28 0-42.215-21.427-80.767-57.35-103.07-1.593-.955-2.07-3.106-1.115-4.699.956-1.593 3.106-2.07 4.7-1.115 18.16 11.31 33.294 27.082 43.888 45.64 10.912 19.197 16.647 41.022 16.647 63.165 0 24.374-6.531 47.791-18.877 67.864-12.108 19.674-29.551 35.604-50.42 45.959-.478.398-.956.478-1.514.478Z"/>
  <path fill="#FFC700" d="M71.846 244.691c-.478 0-1.035-.08-1.513-.398C25.648 221.752 0 180.731 0 131.745 0 79.81 30.985 33.375 78.935 13.46c1.753-.717 3.744.08 4.46 1.832.718 1.753-.079 3.744-1.831 4.46C36.162 38.632 6.85 82.6 6.85 131.746c0 46.278 24.294 85.148 66.59 106.574a3.43 3.43 0 0 1 1.513 4.54c-.717 1.195-1.912 1.832-3.107 1.832Z"/>
  <path fill="#150007" d="M128.4 213.388c2.226 2.637 3.288 6.437 3.631 9.784 4.88-.766 10.235-2.486 15.166-5.96 1.434-1.036 3.425-.638 4.46.796 1.036 1.434.638 3.425-.796 4.46-8.841 6.134-18.48 7.647-25.807 7.647-6.372 0-10.833-1.115-11.231-1.274-1.673-.478-2.708-2.15-2.23-3.903.478-1.673 2.15-2.708 3.903-2.23.116.038 4.313 1.078 10.207.994-.233-2.339-.945-4.802-2.162-6.252-1.673-1.99-4.939-3.106-8.205-2.787-1.832.159-5.177.955-7.009 4.221-1.036 1.912-.956 6.691-.956 9v5.928l-.001 4.148v.483l-.001 1.403c-.005 7.144-.022 11.43-.078 13.05-.08 2.39-.08 4.938 0 7.646.08 11.47.24 24.453-7.248 31.94-3.664 3.665-8.841 5.576-15.373 5.576-9.24 0-15.77-2.947-19.355-8.682-2.788-4.46-3.186-9.399-3.186-13.7v-20.869a3.195 3.195 0 0 1 3.186-3.186H91.36a3.195 3.195 0 0 1 3.186 3.186v16.887a3.195 3.195 0 0 1-3.186 3.186 3.195 3.195 0 0 1-3.186-3.186v-13.7H68.501v17.682c0 8.364 1.991 16.09 16.17 16.09 4.858 0 8.363-1.195 10.912-3.744 5.575-5.575 5.496-17.205 5.336-27.4 0-2.788-.08-5.416 0-7.965.053-1.434.071-5.417.077-11.9v-.9l.001-.462v-1.431l.001-.492.001-9.507c-.08-4.461 0-9.08 1.752-12.187 2.39-4.222 6.691-6.93 11.948-7.408 5.416-.478 10.674 1.434 13.7 5.018Zm77.82-55.517c.477.716 11.23 18.001 14.815 42.852.239 1.434-.558 2.788-1.832 3.346-12.585 5.496-27.082 31.064-31.542 40.384-.478 1.194-1.594 1.832-2.788 1.832-.478 0-.956-.08-1.354-.32-1.593-.796-2.23-2.628-1.514-4.22.637-1.434 16.09-32.977 32.498-42.296-2.39-14.656-7.407-26.365-10.673-32.817l-36.242 77.582c-.557 1.115-1.673 1.832-2.867 1.832h-49.703a3.195 3.195 0 0 1-3.186-3.187 3.195 3.195 0 0 1 3.186-3.186h47.632l37.994-81.484c.478-1.035 1.513-1.752 2.708-1.832 1.195-.08 2.23.478 2.867 1.514Zm-149.508-.478c1.036.159 1.912.876 2.31 1.832l37.596 82.28c.717 1.593 0 3.505-1.593 4.222-.398.239-.876.319-1.274.319-1.195 0-2.39-.717-2.868-1.832l-35.525-77.9c-4.779 6.053-13.54 18.957-14.178 33.613 16.409 10.753 33.693 40.065 34.41 41.34.876 1.513.398 3.424-1.115 4.38-1.514.876-3.425.399-4.381-1.115-.16-.318-18.32-31.144-33.693-40.065a3.213 3.213 0 0 1-1.593-2.788c0-23.656 18.4-42.614 19.117-43.41.716-.717 1.752-1.115 2.787-.876ZM141.781 0a4.11 4.11 0 0 1 3.892 2.705c4.351.522 11.892 1.835 18.291 4.939 1.064-2.056 3.471-3.415 6.173-2.228 14.019 6.213 29.232 18.4 39.508 36.56l.02.033c.058.095.246.404.536.907l.324.566c3.406 6.017 15.421 29.14 13.298 52.499-.265 3.174-2.823 4.64-5.23 4.358.998 1.638 1.615 3.276 1.884 4.882.24 1.115 1.434 7.168-2.628 12.425-3.442 4.54-9.576 6.993-18.155 7.36 3.82 10.088 3.18 19.988 3.18 20.439-.08 1.593-1.434 2.867-3.106 2.867h-.24c-1.752-.159-3.106-1.672-2.946-3.425 0-.035.03-.544.035-1.414v-.494c-.021-3.333-.453-10.507-3.46-17.288a3.144 3.144 0 0 1-.21-.637h-6.163c-5.416 0-11.947.08-18.957.08-6.55 0-13.526-.027-20.497-.096-1.47 4.634-2.204 10.3-2.204 17.3v37.198c.08 6.054 0 12.744-1.752 16.408-2.47 5.098-7.806 8.205-14.258 8.284-.08.16-.16.16-.318.16-6.532 0-12.665-3.187-15.214-7.966-2.15-3.982-2.071-8.523-1.991-14.257 0-1.753.08-3.505 0-5.496a3.25 3.25 0 0 1 3.106-3.266c1.752-.08 3.186 1.354 3.266 3.106v5.656c-.08 4.858-.16 8.682 1.195 11.23 1.513 2.788 5.496 4.7 9.797 4.62 1.912 0 6.611-.557 8.682-4.779 1.274-2.628 1.195-10.514 1.115-13.54v-37.278c0-6.83.678-12.566 1.991-17.46-2.849-.038-5.673-.086-8.443-.143-5.57.118-11.377.194-17.163.24l-2.169.017c-4.332.03-8.635.043-12.798.046H96.06a3780.69 3780.69 0 0 1-18.318-.064H67.147c-8.364 0-14.736-2.23-18.718-6.69-4.7-5.178-4.54-11.55-4.461-12.666 0-2.177.619-4.298 1.84-6.346-2.695 2.103-7.295.945-7.655-3.371-2.123-23.359 9.892-46.482 13.298-52.499l.324-.566c.29-.503.478-.812.537-.907l.02-.032C62.606 23.816 77.82 11.629 91.838 5.417c2.53-1.112 4.802.008 5.954 1.843 8.17-3.749 17.925-4.683 20.551-4.897A4.133 4.133 0 0 1 122.107 0Zm30.746 139.073c3.475 0 6.292 2.781 6.292 6.213 0 3.43-2.817 6.212-6.292 6.212-3.476 0-6.293-2.781-6.293-6.212 0-3.432 2.817-6.213 6.293-6.213Zm-65.156 2.07a3.195 3.195 0 0 1 3.186 3.187 3.195 3.195 0 0 1-3.186 3.186H78.06a3.195 3.195 0 0 1-3.186-3.186 3.195 3.195 0 0 1 3.186-3.186h29.312ZM53.048 99.327c-2.31 2.23-3.425 4.381-3.425 6.452v.239s-.011.14-.013.39v.184c.013 1.391.326 5.045 3.04 7.949 2.947 3.186 7.806 4.779 14.497 4.779H77.74c6.336.07 14.105.126 22.431.13h2.093c9.464-.005 19.543-.077 28.99-.268l1.047-.021c10.595.224 22.051.297 32.57.303h3.026c6.991-.004 13.473-.034 18.886-.064h10.594c7.886 0 13.382-1.753 16.01-5.178 2.629-3.425 1.593-7.646 1.593-7.646l-.08-.319c-.876-5.337-8.363-10.992-20.072-15.134-15.134-5.257-36.72-8.045-62.606-8.045h-.08c-29.95-1.035-65.952 3.585-79.095 16.25Zm93.537-84.151.206.183c2.232 2.013 4.798 4.783 7.416 8.538 11.251 16.063 15.142 38.593 16.339 55.89 18.5 2.579 31.205 7.027 39.19 12.121-3.121-14.856-8.077-32.318-17.854-46.983-10.975-16.463-26.142-26.434-45.297-29.75Zm-33.563.324-.092.016c-13.478 2.433-24.722 7.67-33.517 15.629-7.01 6.372-12.744 14.736-16.966 24.772-4.15 9.974-6.902 21.878-8.257 35.408 8.17-5.267 20.651-9.26 35.772-11.62 1.247-17.212 5.173-39.436 16.214-55.888 2.398-3.545 4.754-6.262 6.846-8.317Zm18.563-1.56c-5.165 0-10.089.321-14.762.96-7.524 6.342-21.84 23.615-24.845 64.5 12.117-1.744 25.833-2.463 40.324-1.977 13.85 0 25.819.756 36.077 2.073-3.032-43.44-18.759-59.714-25.951-64.929a91.233 91.233 0 0 0-10.843-.627Zm14.273-9.085-.014.079a4.058 4.058 0 0 1-1.684 2.538c7.199.923 13.92 2.67 20.152 5.233a4.46 4.46 0 0 1-.92-2.988c-5.957-2.955-13.173-4.29-17.534-4.862Zm-27.88-.382-.14.013c-3.284.307-12.063 1.41-19.304 4.758a4.546 4.546 0 0 1-.354 2.611c6.493-2.284 13.59-3.812 21.286-4.58a4.028 4.028 0 0 1-1.488-2.802Z"/>
</svg>
